svg/Pictogram/pictograms-nps-misc-snack_bar.svg

<svg xmlns="http://www.w3.org/2000/svg" viewBox="0 0 256 256"><path d="m0 0c-.541 0-.981-.44-.981-.981v-7.522c0-.541.44-.981.981-.981h7.521c.542 0 .982.44.982.981v7.522c0 .541-.44.981-.982.981h-7.521" fill="#fff" transform="matrix(25.89783 0 0-25.89783 30.598 5.191)"/><path d="m0 0c.652 0 1.182.529 1.182 1.182v7.521c0 .652-.53 1.182-1.182 1.182h-7.521c-.653 0-1.182-.53-1.182-1.182v-7.521c0-.653.529-1.182 1.182-1.182h7.521" transform="matrix(25.89783 0 0-25.89783 225.39 256)"/><g fill="#fff"><path d="m0 0l-.648-5.102h-2.188l-.646 5.102h2.671l.53 1.846.299-.084-.506-1.76.488-.002" transform="matrix(25.89783 0 0-25.89783 225.99 80.13)"/><path d="m0 0c0 0 .082.742-1.053.742h-1.808c-1.133 0-1.053-.742-1.053-.742h3.914" transform="matrix(25.89783 0 0-25.89783 127.82 157.06)"/><path d="m0 0c0 0-.08-.744 1.053-.744h1.808c1.135 0 1.053.744 1.053.744h-3.914" transform="matrix(25.89783 0 0-25.89783 26.452 192.98)"/><path d="m0 0c.186 0 .336.15.336.336 0 .184-.15.334-.336.334h-3.59c-.185 0-.336-.15-.336-.334 0-.186.151-.336.336-.336h3.59" transform="matrix(25.89783 0 0-25.89783 123.42 183.67)"/></g></svg>

<?xml version="1.0" encoding="UTF-8" standalone="no"?>
<!-- Created with Inkscape (http://www.inkscape.org/) -->
<svg
   xmlns:dc="http://purl.org/dc/elements/1.1/"
   xmlns:cc="http://creativecommons.org/ns#"
   xmlns:rdf="http://www.w3.org/1999/02/22-rdf-syntax-ns#"
   xmlns:svg="http://www.w3.org/2000/svg"
   xmlns="http://www.w3.org/2000/svg"
   xmlns:sodipodi="http://sodipodi.sourceforge.net/DTD/sodipodi-0.dtd"
   xmlns:inkscape="http://www.inkscape.org/namespaces/inkscape"
   width="256"
   height="256"
   id="svg5294"
   sodipodi:version="0.32"
   inkscape:version="0.46"
   version="1.0"
   sodipodi:docname="pictograms-nps-misc-snack_bar-2.svg"
   inkscape:output_extension="org.inkscape.output.svg.inkscape">
  <defs
     id="defs5296">
    <inkscape:perspective
       sodipodi:type="inkscape:persp3d"
       inkscape:vp_x="0 : 526.18109 : 1"
       inkscape:vp_y="0 : 1000 : 0"
       inkscape:vp_z="744.09448 : 526.18109 : 1"
       inkscape:persp3d-origin="372.04724 : 350.78739 : 1"
       id="perspective5302" />
  </defs>
  <sodipodi:namedview
     id="base"
     pagecolor="#ffffff"
     bordercolor="#666666"
     borderopacity="1.0"
     gridtolerance="10000"
     guidetolerance="10"
     objecttolerance="10"
     inkscape:pageopacity="0.0"
     inkscape:pageshadow="2"
     inkscape:zoom="0.98994949"
     inkscape:cx="112.80911"
     inkscape:cy="62.857143"
     inkscape:document-units="px"
     inkscape:current-layer="layer1"
     showgrid="false"
     inkscape:window-width="725"
     inkscape:window-height="674"
     inkscape:window-x="1"
     inkscape:window-y="309" />
  <metadata
     id="metadata5299">
    <rdf:RDF>
      <cc:Work
         rdf:about="">
        <dc:format>image/svg+xml</dc:format>
        <dc:type
           rdf:resource="http://purl.org/dc/dcmitype/StillImage" />
      </cc:Work>
    </rdf:RDF>
  </metadata>
  <g
     inkscape:label="Layer 1"
     inkscape:groupmode="layer"
     id="layer1">
    <g
       id="g4774"
       transform="matrix(25.897825,0,0,-25.897825,30.598177,5.1905457)">
      <path
         d="M 0,0 C -0.541,0 -0.981,-0.44 -0.981,-0.981 L -0.981,-8.503 C -0.981,-9.044 -0.541,-9.484 0,-9.484 L 7.521,-9.484 C 8.063,-9.484 8.503,-9.044 8.503,-8.503 L 8.503,-0.981 C 8.503,-0.44 8.063,0 7.521,0 L 0,0 z"
         style="fill:#ffffff;fill-opacity:1;fill-rule:nonzero;stroke:none"
         id="path4776" />
    </g>
    <g
       id="g4778"
       transform="matrix(25.897825,0,0,-25.897825,225.38877,256)">
      <path
         d="M 0,0 C 0.652,0 1.182,0.529 1.182,1.182 L 1.182,8.703 C 1.182,9.355 0.652,9.885 0,9.885 L -7.521,9.885 C -8.174,9.885 -8.703,9.355 -8.703,8.703 L -8.703,1.182 C -8.703,0.529 -8.174,0 -7.521,0 L 0,0 z"
         style="fill:#000000;fill-opacity:1;fill-rule:nonzero;stroke:none"
         id="path4780" />
    </g>
    <g
       id="g4782"
       transform="matrix(25.897825,0,0,-25.897825,225.99457,80.128492)">
      <path
         d="M 0,0 L -0.648,-5.102 L -2.836,-5.102 L -3.482,0 L -0.811,0 L -0.281,1.846 L 0.018,1.762 L -0.488,0.002 L 0,0 z"
         style="fill:#ffffff;fill-opacity:1;fill-rule:nonzero;stroke:none"
         id="path4784" />
    </g>
    <g
       id="g4786"
       transform="matrix(25.897825,0,0,-25.897825,127.81592,157.06285)">
      <path
         d="M 0,0 C 0,0 0.082,0.742 -1.053,0.742 L -2.861,0.742 C -3.994,0.742 -3.914,0 -3.914,0 L 0,0 z"
         style="fill:#ffffff;fill-opacity:1;fill-rule:nonzero;stroke:none"
         id="path4788" />
    </g>
    <g
       id="g4790"
       transform="matrix(25.897825,0,0,-25.897825,26.452038,192.97547)">
      <path
         d="M 0,0 C 0,0 -0.08,-0.744 1.053,-0.744 L 2.861,-0.744 C 3.996,-0.744 3.914,0 3.914,0 L 0,0 z"
         style="fill:#ffffff;fill-opacity:1;fill-rule:nonzero;stroke:none"
         id="path4792" />
    </g>
    <g
       id="g4794"
       transform="matrix(25.897825,0,0,-25.897825,123.41598,183.66737)">
      <path
         d="M 0,0 C 0.186,0 0.336,0.15 0.336,0.336 C 0.336,0.52 0.186,0.67 0,0.67 L -3.59,0.67 C -3.775,0.67 -3.926,0.52 -3.926,0.336 C -3.926,0.15 -3.775,0 -3.59,0 L 0,0 z"
         style="fill:#ffffff;fill-opacity:1;fill-rule:nonzero;stroke:none"
         id="path4796" />
    </g>
  </g>
</svg>
